!!!!SEGMENT: pl-kk--kk-i-7--089_gorczycki-grzegorz-gerwazy--alleluia-prophetae-sancti.krn
!!!cenid: 16xx:928
!!!COM: Gorczycki, Grzegorz Gerwazy
!!!COM-rismID: pe30009207
!!!CDT: ~1666-1734/04/30
!!!CNT: Polish
!!!OTL: Alleluia Prophetae sancti
!!!PDT:
!!!AGN: Sacred
!!!SMS-siglum: PL-Kk
!!!SMS-shelfmark: Kk.I.7
!!!SMS-shelfwork: 089 W
!!!SMS-variant:
!!!SMS-altvar:
!!!NIFC-rismSourceID: 300258077
!!!NIFC-rismChildID: 300258166
!!!NIFC-islandoraID: pl-kk:1956
!!!URL-pdf-islandora: https://repozytorium.nifc.pl/islandora/object/pl-kk%3A1956/datastream/PDF/view
!!!URL-scan: https://polish.musicsources.pl/pl/lokalizacje/galeria/rekopisy/6140 @EN{Scan on Polish Music Sources Website} @PL{Skany w portalu Dziedzictwo Muzyki Polskiej w otwartym dostępie}
!!!ONB-nifc: UWAGA: C (skan 0074, s.140), A (brak), T(0236, s.135), B(0324, s.134). Następny utwór: Gaude Maria virgo
!!!AIN: 1 alto 1 bass 1 soprn 1 tenor
!!!key:
**kern	**text	**text	**kern	**text	**text	**kern	**kern	**text	**text
*part4	*part4	*part4	*part3	*part3	*part3	*part2	*part1	*part1	*part1
*staff4	*staff4	*staff4	*staff3	*staff3	*staff3	*staff2	*staff1	*staff1	*staff1
*Ibass	*	*	*Itenor	*	*	*Ialto	*Isoprn	*	*
*I"[BASSVS.]	*	*	*I"[TENOR.]	*	*	*I"[ALTVS.]	*I"[CANTVS.]	*	*
*I'[B]	*	*	*I'[T]	*	*	*I'[A]	*I'[C]	*	*
*clefF4	*	*	*clefC4	*	*	*clefC4	*clefC1	*	*
*k[]	*	*	*k[]	*	*	*k[]	*k[]	*	*
*d:	*	*	*d:	*	*	*d:	*d:	*	*
*M2/1	*	*	*M2/1	*	*	*M2/1	*M2/1	*	*
*met(C|)	*	*	*met(C|)	*	*	*met(C|)	*met(C|)	*	*
=1-	=1-	=1-	=1-	=1-	=1-	=1-	=1-	=1-	=1-
*	*	*	*lig	*	*	*	*	*	*
!LO:TX:a:t=In adventu, et post Nativitatem D(omi)ni.	!	!	!LO:TX:a:t=In adventu, et post Nativitatem	!	!	!	!LO:TX:a:t=In adventu, et post [N]ativitatem	!	!
!LO:TX:t=P:problem=przed kluczem inicjał A	!	!	!LO:TX:t=P:problem=przed kluczem inicjał A	!	!	!	!LO:TX:t=P:problem=przed kluczem inicjał A	!	!
1AA	Al-	.	1C	Al-	.	0ryy	1a	Al-	.
*2\right	*	*	*	*	*	*	*	*	*
2D\	-le-	.	1D	.	.	.	2fn/	-le-	.
!	!	!	!	!	!	!	!LO:TX:t=P:problem=kreska pseudotaktowa	!	!
1F\	.	.	.	.	.	.	2d/	-lu-	.
*	*	*	*Xlig	*	*	*	*	*	*
=2-	=2-	=2-	=2-	=2-	=2-	=2-	=2-	=2-	=2-
*	*	*	*lig	*	*	*	*	*	*
.	.	.	1D	-le-	.	0ryy	4a\	-ia	.
.	.	.	.	.	.	.	4g\	.	.
2D\	.	.	.	.	.	.	4f/	.	.
.	.	.	.	.	.	.	4e/	.	.
4A\	.	.	1F	.	.	.	2.f/	al-	.
4G\	.	.	.	.	.	.	.	.	.
4F\	.	.	.	.	.	.	.	.	.
!LO:TX:t=P:problem=kreska pseudotaktowa	!	!	!	!	!	!	!	!	!
4E\	.	.	.	.	.	.	4g/	.	.
*	*	*	*Xlig	*	*	*	*	*	*
=3-	=3-	=3-	=3-	=3-	=3-	=3-	=3-	=3-	=3-
*	*	*	*lig	*	*	*	*	*	*
2D/	.	.	1F	-lu-	.	0ryy	1a	.	.
1D	.	.	.	.	.	.	.	.	.
.	.	.	1E	.	.	.	1g	-le-	.
2C/	.	.	.	.	.	.	.	.	.
*	*	*	*Xlig	*	*	*	*	*	*
=4-	=4-	=4-	=4-	=4-	=4-	=4-	=4-	=4-	=4-
0D	-lu-	.	0D	.	.	0ryy	2f/	.	.
.	.	.	.	.	.	.	1a	.	.
*	*	*	*	*	*	*	*2\right	*	*
.	.	.	.	.	.	.	2a\	-lu-	.
=5-	=5-	=5-	=5-	=5-	=5-	=5-	=5-	=5-	=5-
1AA	-ia	.	1E	-ia	.	0ryy	1a;	-ia.	.
=||	=||	=||	=||	=||	=||	=||	=||	=||	=||
*	*	*	*lig	*	*	*	*	*	*
!LO:TX:t=P:problem=kreska pseudotaktowa	!	!	!	!	!	!	!	!	!
1F	Al-	.	1F	Al-	.	.	1a	al-	.
=6-	=6-	=6-	=6-	=6-	=6-	=6-	=6-	=6-	=6-
4E\	-le-	.	1G	.	.	0ryy	1cc	-le-	.
4D\	.	.	.	.	.	.	.	.	.
4E\	.	.	.	.	.	.	.	.	.
!LO:TX:t=P:problem=kreska pseudotaktowa	!	!	!	!	!	!	!	!	!
4C/	.	.	.	.	.	.	.	.	.
*	*	*	*Xlig	*	*	*	*	*	*
*	*	*	*lig	*	*	*	*	*	*
2F\	.	.	1F	.	.	.	4a\	.	.
.	.	.	.	.	.	.	4g\	.	.
!LO:TX:t=P:problem=kreska pseudotaktowa	!	!	!	!	!	!	!	!	!
2D\	.	.	.	.	.	.	4a\	.	.
.	.	.	.	.	.	.	4f/	.	.
=7-	=7-	=7-	=7-	=7-	=7-	=7-	=7-	=7-	=7-
2E\	.	.	1G	.	.	0ryy	2cc\	.	.
2G\	lu-	.	.	.	.	.	2bn\	.	.
*	*	*	*Xlig	*	*	*	*	*	*
*	*	*	*lig	*	*	*	*	*	*
!LO:TX:t=P:problem=kreska pseudotaktowa	!	!	!	!	!	!	!	!	!
1C	-ia	.	1E	.	.	.	2.cc\	.	.
!	!	!	!	!	!	!	!LO:TX:t=P:problem=kreska pseudotaktowa	!	!
.	.	.	.	.	.	.	4b-X\	-lu-	.
=8-	=8-	=8-	=8-	=8-	=8-	=8-	=8-	=8-	=8-
4D/	al-	.	1F	.	.	0ryy	2.a\	-ia	.
4C/	.	.	.	.	.	.	.	.	.
4D/	.	.	.	.	.	.	.	.	.
!LO:TX:t=P:problem=kreska pseudotaktowa	!	!	!	!	!	!	!	!	!
4E/	.	.	.	.	.	.	4g/	.	.
*	*	*	*Xlig	*	*	*	*	*	*
4F\	.	.	1D	-le-	.	.	4f/	al-	.
4E\	.	.	.	.	.	.	4g/	.	.
4F\	.	.	.	.	.	.	4a/	.	.
!LO:TX:t=P:problem=kreska pseudotaktowa	!	!	!	!	!	!	!LO:TX:t=P:problem=kreska pseudotaktowa	!	!
4G\	.	.	.	.	.	.	4f/	.	.
=9-	=9-	=9-	=9-	=9-	=9-	=9-	=9-	=9-	=9-
*	*	*	*lig	*	*	*	*	*	*
2A\	.	.	1F	.	.	0ryy	2cc\	.	.
1F	-le-	.	.	.	.	.	2a\	.	.
!	!	!	!	!	!	!	!LO:TX:a:t=P:problem=♭ above	!	!
.	.	.	1G	.	.	.	2b-X\	-le-	.
!LO:TX:t=P:problem=kreska pseudotaktowa	!	!	!	!	!	!	!LO:TX:t=P:problem=kreska pseudotaktowa	!	!
2E\	-lu-	.	.	.	.	.	2g\	-lu-	.
*	*	*	*Xlig	*	*	*	*	*	*
=10-	=10-	=10-	=10-	=10-	=10-	=10-	=10-	=10-	=10-
2F\	-ia	.	0A	.	.	0ryy	2f/	-ia	.
2.FF/	al-	.	.	.	.	.	2.cc\	al-	.
4GG/	.	.	.	.	.	.	4b-X\	.	.
4AA/	.	.	.	.	.	.	4a\	.	.
*	*	*	*	*	*	*	*custos:cc	*	*
!LO:TX:t=P:problem=kreska pseudotaktowa	!	!	!	!	!	!	!LO:TX:t=P:problem=kreska pseudotaktowa	!	!
4BB-X/	.	.	.	.	.	.	4g\	.	.
=11-	=11-	=11-	=11-	=11-	=11-	=11-	=11-	=11-	=11-
*	*	*	*lig	*	*	*	*	*	*
!	!	!	!	!	!	!	!LO:LB:g=original	!	!
2C/	.	.	1G	.	.	0ryy	1cc	.	.
1C	.	.	.	.	.	.	.	.	.
.	.	.	1E	.	.	.	2g\	.	.
*custos:D	*	*	*	*	*	*	*	*	*
!LO:TX:t=P:problem=kreska pseudotaktowa	!	!	!	!	!	!	!	!	!
2AA/	.	.	.	.	.	.	1a\	.	.
*	*	*	*Xlig	*	*	*	*	*	*
=12-	=12-	=12-	=12-	=12-	=12-	=12-	=12-	=12-	=12-
*	*	*	*lig	*	*	*	*	*	*
!LO:LB:g=original	!	!	!	!	!	!	!	!	!
2D\	.	.	1F	.	.	0ryy	.	.	.
!	!	!	!	!	!	!	!LO:TX:t=P:problem=kreska pseudotaktowa	!	!
1F	.	.	.	.	.	.	2f/	.	.
.	.	.	1D	.	.	.	2a\	.	.
!LO:TX:t=P:problem=kreska pseudotaktowa	!	!	!	!	!	!	!	!	!
2D\	.	.	.	.	.	.	2bn\	.	.
*	*	*	*Xlig	*	*	*	*	*	*
=13-	=13-	=13-	=13-	=13-	=13-	=13-	=13-	=13-	=13-
!	!	!	!	!	!	!	!LO:TX:t=P:problem=kreska pseudotaktowa	!	!
2F\	.	.	1C	.	.	0ryy	1cc	-lu-	.
1G	.	.	.	.	.	.	.	.	.
.	.	.	1D	.	.	.	2a,<\	-ia	.
2F\	-le-	.	.	.	.	.	1dd\	-al	.
=14-	=14-	=14-	=14-	=14-	=14-	=14-	=14-	=14-	=14-
*	*	*	*lig	*	*	*	*	*	*
!LO:TX:t=P:problem=kreska pseudotaktowa	!	!	!	!	!	!	!	!	!
1E	-lu-	.	1E	.	.	0ryy	.	.	.
.	.	.	.	.	.	.	2cc#X\	.	.
!	!	!	!	!	!	!	!LO:TX:t=P:problem=kreska pseudotaktowa	!	!
2D/	-ia	.	1F	.	.	.	1dd	.	.
1D\	al-	.	.	.	.	.	.	.	.
*	*	*	*Xlig	*	*	*	*	*	*
=15-	=15-	=15-	=15-	=15-	=15-	=15-	=15-	=15-	=15-
*	*	*	*lig	*	*	*	*	*	*
.	.	.	1G	-lu-	.	0ryy	2g\	-le-	.
2C/	-le-	.	.	.	.	.	1a	.	.
1D	-lu-	.	1F	.	.	.	.	.	.
.	.	.	.	.	.	.	2a\	-lu-	.
*	*	*	*Xlig	*	*	*	*	*	*
=16-	=16-	=16-	=16-	=16-	=16-	=16-	=16-	=16-	=16-
0AA;	-ia	.	0E;	-ia.	.	0ryy	0a;	-ia	.
!	!	!	!LO:LB:g=original	!	!	!	!	!	!
=17||	=17||	=17||	=17||	=17||	=17||	=17||	=17||	=17||	=17||
*M2/1	*	*	*M2/1	*	*	*M2/1	*M2/1	*	*
*met(C|)	*	*	*met(C|)	*	*	*met(C|)	*met(C|)	*	*
!LO:TX:t=P:problem=przed metrum inicjał P	!	!	!LO:TX:t=P:problem=przed kluczem inicjał P	!	!	!	!LO:TX:t=P:problem=przed metrum inicjał P	!	!
1D	Pro-	Post	1F	Pro-	Post	0ryy	1a	Pro-	Post
*	*	*	*lig	*	*	*	*	*	*
2D/	-phe-	par-	1F	-phe-	par-	.	2a\	-phe-	par-
!LO:TX:t=P:problem=kreska pseudotaktowa	!	!	!	!	!	!	!	!	!
2D/	-tae	-tum	.	.	.	.	2a\	-tae	-tum
=18-	=18-	=18-	=18-	=18-	=18-	=18-	=18-	=18-	=18-
4GG/	san-	Vir-	1D	.	.	0ryy	1b-X	san-	Vir-
4AA/	.	.	.	.	.	.	.	.	.
4BB-X/	.	.	.	.	.	.	.	.	.
!LO:TX:t=P:problem=kreska pseudotaktowa	!	!	!	!	!	!	!	!	!
4C/	.	.	.	.	.	.	.	.	.
*	*	*	*Xlig	*	*	*	*	*	*
*	*	*	*lig	*	*	*	*	*	*
4D\	.	.	1F	.	.	.	2a\	.	.
4E\	.	.	.	.	.	.	.	.	.
!	!	!	!	!	!	!	!LO:TX:t=P:problem=kreska pseudotaktowa	!	!
4F\	.	.	.	.	.	.	[<2f/	.	.
!LO:TX:t=P:problem=kreska pseudotaktowa	!	!	!	!	!	!	!	!	!
4E\	.	.	.	.	.	.	.	.	.
=19-	=19-	=19-	=19-	=19-	=19-	=19-	=19-	=19-	=19-
!	!	!	!	!	!	!	!LO:N:xstem:cue	!	!
1D	.	.	1D	.	.	0ryy	4f]	.	.
.	.	.	.	.	.	.	4g\	.	.
.	.	.	.	.	.	.	4a\	.	.
!	!	!	!	!	!	!	!LO:TX:t=P:problem=kreska pseudotaktowa	!	!
.	.	.	.	.	.	.	4b-y\	.	.
*	*	*	*Xlig	*	*	*	*	*	*
!LO:TX:t=P:problem=kreska pseudotaktowa	!	!	!LO:TX:t=P:problem=kreska pseudotaktowa	!	!	!	!	!	!
1AA	.	.	1C	-tae	-tum	.	2.cc\	.	.
.	.	.	.	.	.	.	4b-X\	.	.
=20-	=20-	=20-	=20-	=20-	=20-	=20-	=20-	=20-	=20-
2D/	.	.	1D	San-	Vir-	0ryy	2a\	.	.
2BB-X/	.	.	.	.	.	.	2g\	.	.
!	!	!	!LO:TX:t=P:problem=kreska pseudotaktowa	!	!	!	!	!	!
1AA	.	.	1E	-cti	-go	.	2a\	.	.
.	.	.	.	.	.	.	1cc\	.	.
=21-	=21-	=21-	=21-	=21-	=21-	=21-	=21-	=21-	=21-
2AA,</	-cti	-go	1E	prae-	in-	0ryy	.	.	.
!LO:TX:t=P:problem=kreska pseudotaktowa	!	!	!	!	!	!	!	!	!
2E\	prae-	in-	.	.	.	.	2bn\	.	.
!	!	!	!	!	!	!	!LO:TX:t=P:problem=kreska pseudotaktowa	!	!
2C/	-di-	-vio-	1C	-di-	-vio-	.	1a,<	-cti,	-go
!LO:TX:t=P:problem=kreska pseudotaktowa	!	!	!	!	!	!	!	!	!
2AA/	-ca-	.	.	.	.	.	.	.	.
=22-	=22-	=22-	=22-	=22-	=22-	=22-	=22-	=22-	=22-
2.C/	-ve-	-la-	1E	-ca-	-la-	0ryy	1r	.	.
!LO:TX:t=P:problem=kreska pseudotaktowa	!	!	!	!	!	!	!	!	!
4D\	.	.	.	.	.	.	.	.	.
*	*	*	*lig	*	*	*	*	*	*
4E\	.	.	1G	-ve-	.	.	2r	.	.
4F\	.	.	.	.	.	.	.	.	.
!	!	!	!	!	!	!	!LO:TX:t=P:problem=kreska pseudotaktowa	!	!
4G\	.	.	.	.	.	.	2ee\	prae-	in-
*custos:A	*	*	*	*	*	*	*	*	*
!LO:TX:t=P:problem=kreska pseudotaktowa	!	!	!	!	!	!	!	!	!
4E\	.	.	.	.	.	.	.	.	.
=23-	=23-	=23-	=23-	=23-	=23-	=23-	=23-	=23-	=23-
!LO:LB:g=original	!	!	!	!	!	!	!	!	!
2A\	.	.	1A	.	.	0ryy	2cc\	.	-vio-
2AA/	.	.	.	.	.	.	1a	-di-	.
*	*	*	*Xlig	*	*	*	*	*	*
*	*	*	*lig	*	*	*	*	*	*
4D\	.	.	1F	.	.	.	.	.	.
4E\	.	.	.	.	.	.	.	.	.
4F\	.	.	.	.	.	.	1dd\	.	-la-
4D\	.	.	.	.	.	.	.	.	.
=24-	=24-	=24-	=24-	=24-	=24-	=24-	=24-	=24-	=24-
2G\	.	.	1G	.	.	0ryy	.	.	.
*	*	*	*	*	*	*	*custos:cc	*	*
!LO:TX:t=P:problem=kreska pseudotaktowa	!	!	!	!	!	!	!LO:TX:t=P:problem=kreska pseudotaktowa	!	!
2GG/	.	.	.	.	.	.	2b\	-ve-	.
*	*	*	*Xlig	*	*	*	*	*	*
*	*	*	*lig	*	*	*	*	*	*
!	!	!	!	!	!	!	!LO:LB:g=original	!	!
!	!	!	!	!	!	!	!LO:TX:t=P:problem=kreska pseudotaktowa	!	!
4C\	.	.	1E	.	.	.	1cc	-runt	-ta
4D\	.	.	.	.	.	.	.	.	.
4E\	.	.	.	.	.	.	.	.	.
4C/	.	.	.	.	.	.	.	.	.
=25-	=25-	=25-	=25-	=25-	=25-	=25-	=25-	=25-	=25-
1F	.	.	1F	.	.	0ryy	2r	.	.
.	.	.	.	.	.	.	2a\	prae-	in-
*	*	*	*Xlig	*	*	*	*	*	*
!LO:TX:t=P:problem=kreska pseudotaktowa	!	!	!LO:TX:t=P:problem=kreska pseudotaktowa	!	!	!	!	!	!
1D	-runt	-ta	1D,<	-runt	ta	.	2f/	-di-	-vio-
!	!	!	!	!	!	!	!LO:TX:t=P:problem=kreska pseudotaktowa	!	!
.	.	.	.	.	.	.	2d/	-ca-	-la-
=26-	=26-	=26-	=26-	=26-	=26-	=26-	=26-	=26-	=26-
2r	.	.	1D	na-	per-	0ryy	1a	-ve-	.
!LO:TX:t=P:problem=kreska pseudotaktowa	!	!	!	!	!	!	!	!	!
2A\	prae-	'in-	.	.	.	.	.	.	.
*	*	*	*lig	*	*	*	*	*	*
2F\	-di-	-vio-	1D	-sci	-man-	.	2a,<\	-runt	-ta
!LO:TX:t=P:problem=kreska pseudotaktowa	!	!	!	!	!	!	!	!	!
2D/	-ca-	.	.	.	.	.	2dd\	na-	in-
=27-	=27-	=27-	=27-	=27-	=27-	=27-	=27-	=27-	=27-
2.A\	-ve-	-la-	1F	.	.	0ryy	2.cc\	.	-vio-
!LO:TX:t=P:problem=kreska pseudotaktowa	!	!	!	!	!	!	!LO:TX:t=P:problem=kreska pseudotaktowa	!	!
4G\	.	.	.	.	.	.	4b-X\	.	.
*	*	*	*Xlig	*	*	*	*	*	*
2.F\	.	.	1F	Sal-	.	.	2.a\	.	-la-
!LO:TX:t=P:problem=kreska pseudotaktowa	!	!	!	!	!	!	!	!	!
4E\	.	.	.	.	.	.	4g/	.	.
=28-	=28-	=28-	=28-	=28-	=28-	=28-	=28-	=28-	=28-
!	!	!	!	!	!	!	!LO:TX:t=P:problem=kreska pseudotaktowa	!	!
2D,</	-runt	-ta	1F	-va-	-si-	0ryy	1f	-ſci,	-ta
1D	naſ-	per-	.	.	.	.	.	.	.
*	*	*	*lig	*	*	*	*	*	*
.	.	.	1E	-to-	.	.	2r	.	.
!LO:TX:t=P:problem=kreska pseudotaktowa	!	!	!	!	!	!	!	!	!
2C/	-ci	-man-	.	.	.	.	2cc\	Sal-	per-
=29-	=29-	=29-	=29-	=29-	=29-	=29-	=29-	=29-	=29-
2D\	Sal-	-si-	1F	.	.	0ryy	1a	-va-	-man-
1F	-va-	.	.	.	.	.	.	.	.
*	*	*	*Xlig	*	*	*	*	*	*
.	.	.	1G	.	.	.	2b-X\	-to-	.
2E\	.	.	.	.	.	.	2g\	.	.
=30-	=30-	=30-	=30-	=30-	=30-	=30-	=30-	=30-	=30-
*	*	*	*lig	*	*	*	*	*	*
!	!	!	!	!	!	!	!LO:TX:t=P:problem=kreska pseudotaktowa	!	!
1D	-to-	.	1F	-rem	sti	0ryy	1a	.	-sis-
!LO:TX:t=P:problem=kreska pseudotaktowa	!	!	!LO:TX:t=P:problem=kreska pseudotaktowa	!	!	!	!	!	!
1AA,<	-rem	-sti	1E	.	.	.	2a,\	-rem	-ti
.	.	.	.	.	.	.	2e/	de	De-
*	*	*	*Xlig	*	*	*	*	*	*
=31-	=31-	=31-	=31-	=31-	=31-	=31-	=31-	=31-	=31-
0r	.	.	1E	de	De-	0ryy	2.g\	vir-	.
.	.	.	.	.	.	.	4a\	-gi-	.
.	.	.	1G	Vir-	-i	.	2bn,\	-ne	-i
*	*	*	*	*	*	*	*	*ij	*
!	!	!	!	!	!	!	!LO:TX:t=P:problem=kreska pseudotaktowa	!	!
.	.	.	.	.	.	.	2g\	de	ge-
=32-	=32-	=32-	=32-	=32-	=32-	=32-	=32-	=32-	=32-
*	*	*	*custos:A	*	*	*	*	*	*
!LO:TX:t=P:problem=kreska pseudotaktowa	!	!	!	!	!	!	!	!	!
1r	.	.	1A	-gi-	.	0ryy	2.cc\	vir-	.
.	.	.	.	.	.	.	4cc\	-gi-	-ni-
*	*	*	*lig	*	*	*	*	*	*
!	!	!	!LO:LB:g=original	!	!	!	!	!	!
2r	.	.	1A	-ne-	ge-	.	2cc,\	-ne	-trix
*	*	*	*	*	*	*	*	*Xij	*
!	!	!	!	!	!	!	!LO:TX:t=P:problem=kreska pseudotaktowa	!	!
1AA/	de	De-	.	.	.	.	[<2a\	Ma-	ge-
=33-	=33-	=33-	=33-	=33-	=33-	=33-	=33-	=33-	=33-
!	!	!	!	!	!	!	!LO:N:xstem:cue	!	!
.	.	.	1c	.	.	0ryy	4a]	.	.
.	.	.	.	.	.	.	4b\	.	.
!LO:TX:t=P:problem=kreska pseudotaktowa	!	!	!	!	!	!	!	!	!
2C/	.	-i	.	.	.	.	4a\	.	.
.	.	.	.	.	.	.	4g\	.	.
*	*	*	*Xlig	*	*	*	*	*	*
*	*	*	*lig	*	*	*	*	*	*
1D	Vir-	Ge-	1A	.	.	.	4f/	.	.
.	.	.	.	.	.	.	4d/	.	.
.	.	.	.	.	.	.	1dd\	.	.
=34-	=34-	=34-	=34-	=34-	=34-	=34-	=34-	=34-	=34-
2.E\	.	.	1G	.	.	0ryy	.	.	.
.	.	.	.	.	.	.	2cc#X\	.	-ni-
!LO:TX:t=P:problem=kreska pseudotaktowa	!	!	!	!	!	!	!	!	!
4E\	-gi-	-ni-	.	.	.	.	.	.	.
*	*	*	*Xlig	*	*	*	*	*	*
!	!	!	!	!	!	!	!LO:TX:t=P:problem=kreska pseudotaktowa	!	!
1F,	-ne	-trix	1F	.	.	.	1dd	-tre	-trix
=35-	=35-	=35-	=35-	=35-	=35-	=35-	=35-	=35-	=35-
2E\	Ma-	Vir-	1G	.	.	0ryy	2r	.	.
1G	.	.	.	.	.	.	2dd\	San-	in-
*	*	*	*lig	*	*	*	*	*	*
.	.	.	1A	.	.	.	2ccny\	-cta	-vio-
*	*	*	*	*	*	*	*custos:b-	*	*
!	!	!	!	!	!	!	!LO:TX:t=P:problem=kreska pseudotaktowa	!	!
1F\	.	.	.	.	.	.	2a\	Ma-	.
=36-	=36-	=36-	=36-	=36-	=36-	=36-	=36-	=36-	=36-
!	!	!	!	!	!	!	!LO:LB:g=original	!	!
.	.	.	1G	.	.	0ryy	2b-X\	-ri-	-la-
*custos:E	*	*	*	*	*	*	*	*	*
!LO:TX:t=P:problem=kreska pseudotaktowa	!	!	!	!	!	!	!	!	!
[<2E\	.	.	.	.	.	.	2g\	-a	.
*	*	*	*Xlig	*	*	*	*	*	*
!LO:LB:g=original	!	!	!	!	!	!	!	!	!
!LO:TX:t=P:problem=brak zakończenia łuku/ligatury	!	!	!	!	!	!	!	!	!
2E\]	.	.	1F	.	.	.	2a\	Ma-	.
!	!	!	!	!	!	!	!LO:TX:t=P:problem=kreska pseudotaktowa	!	!
1D\	.	.	.	.	.	.	2f/	.	.
=37-	=37-	=37-	=37-	=37-	=37-	=37-	=37-	=37-	=37-
*	*	*	*lig	*	*	*	*	*	*
.	.	.	1E	.	.	0ryy	2g\	.	.
2C#X/	.	.	.	.	.	.	2a\	-ri-	.
!LO:TX:t=P:problem=kreska pseudotaktowa	!	!	!	!	!	!	!	!	!
1D,<	-tre	-go	1D	.	.	.	2d/	-a	-ta
.	.	.	.	.	.	.	2dd\	Ma-	ge-
*	*	*	*Xlig	*	*	*	*	*	*
=38-	=38-	=38-	=38-	=38-	=38-	=38-	=38-	=38-	=38-
!LO:TX:t=P:problem=kreska pseudotaktowa	!	!	!	!	!	!	!	!	!
0r	.	.	1E	.	.	0ryy	2.cc\	.	.
.	.	.	.	.	.	.	4b-X\	-ri-	-ni-
*	*	*	*lig	*	*	*	*	*	*
.	.	.	1F	.	.	.	2a,<\	-a	-trix
.	.	.	.	.	.	.	2a,<\	prae-	in-
=39-	=39-	=39-	=39-	=39-	=39-	=39-	=39-	=39-	=39-
2r	.	.	1D	.	.	0ryy	2a\	-di-	-vio-
!LO:TX:t=P:problem=kreska pseudotaktowa	!	!	!	!	!	!	!	!	!
2D\	prae-	in-	.	.	.	.	2a\	-ca-	.
*	*	*	*Xlig	*	*	*	*	*	*
2D\	-di-	-vio-	1F	.	.	.	1dd	-ve-	la-
2D\	-ca-	.	.	.	.	.	.	.	.
=40-	=40-	=40-	=40-	=40-	=40-	=40-	=40-	=40-	=40-
!LO:TX:t=P:problem=kreska pseudotaktowa	!	!	!	!	!	!	!LO:TX:t=P:problem=kreska pseudotaktowa	!	!
1G	-ve-	-la-	1G	.	.	0ryy	1bny	-runt	.
2F,<\	-runt	-ta	0A	.	.	.	2cc\	naſ-	-ta
1F\	naſ-	per-	.	.	.	.	2cc\	-ci	per-
=41-	=41-	=41-	=41-	=41-	=41-	=41-	=41-	=41-	=41-
.	.	.	.	.	.	0ryy	4f/	Sal-	-man-
.	.	.	.	.	.	.	4g/	.	.
2F\	-ci	-man-	.	.	.	.	4a/	.	.
!	!	!	!	!	!	!	!LO:TX:t=P:problem=kreska pseudotaktowa	!	!
.	.	.	.	.	.	.	4b/	.	.
4Cny/	Sal-	-si-	1G	.	-ni-	.	2.cc\	.	-si-
4D/	.	.	.	.	.	.	.	.	.
4E/	.	.	.	.	.	.	.	.	.
!LO:TX:t=P:problem=kreska pseudotaktowa	!	!	!	!	!	!	!	!	!
4C/	.	.	.	.	.	.	4b\	-va-	.
=42-	=42-	=42-	=42-	=42-	=42-	=42-	=42-	=42-	=42-
*	*	*	*lig	*	*	*	*	*	*
4D\	-va-	.	1F	.	-trix	0ryy	4a\	-to-	.
4E\	.	.	.	.	.	.	4e/	.	.
4F\	.	.	.	.	.	.	1a	.	.
4D\	.	.	.	.	.	.	.	.	.
!	!	!	!LO:TX:t=P:problem=kreska pseudotaktowa	!	!	!	!	!	!
1E	-to-	.	1E	.	.	.	.	.	.
!	!	!	!	!	!	!	!LO:TX:t=P:problem=kreska pseudotaktowa	!	!
.	.	.	.	.	.	.	2g#X\	.	.
*	*	*	*Xlig	*	*	*	*	*	*
=43-	=43-	=43-	=43-	=43-	=43-	=43-	=43-	=43-	=43-
!LO:TX:t=P:problem=kreska pseudotaktowa	!	!	!	!	!	!	!	!	!
1AA,<	-rem	-sti	1E	-Ma-	in-	0ryy	2a,<\	-rem	-sti
.	.	.	.	.	.	.	1cc	Sal-	per-
*	*	*	*lig	*	*	*	*	*	*
0r	.	.	1F	-tre	-ter-	.	.	.	.
.	.	.	.	.	.	.	2cc\	-va-	-man-
=44-	=44-	=44-	=44-	=44-	=44-	=44-	=44-	=44-	=44-
.	.	.	1D	.	.	0ryy	2cc\	-to-	-si-
.	.	.	.	.	.	.	2bny\	.	.
*	*	*	*Xlig	*	*	*	*	*	*
*	*	*	*lig	*	*	*	*	*	*
!	!	!	!	!	!	!	!LO:TX:t=P:problem=kreska pseudotaktowa	!	!
2r	.	.	1C	San-	-ce-	.	1cc	-rem	sti
2AA/	de	De-	.	.	.	.	.	.	.
=45-	=45-	=45-	=45-	=45-	=45-	=45-	=45-	=45-	=45-
2.D\	Vir-	.	1D	.	.	0ryy	2a\	da	De-
.	.	.	.	.	.	.	2e/	.	-i
!LO:TX:t=P:problem=kreska pseudotaktowa	!	!	!	!	!	!	!	!	!
4E\	-gi-	-i	.	.	.	.	.	.	.
*	*	*	*Xlig	*	*	*	*	*	*
2D\	-ne	Ge-	1F	-cta	-de	.	2.a\	Vir-	Ge-
1F\	Ma-	.	.	.	.	.	.	.	.
.	.	.	.	.	.	.	4a\	-gi-	-ni-
=46-	=46-	=46-	=46-	=46-	=46-	=46-	=46-	=46-	=46-
*	*	*	*lig	*	*	*	*	*	*
!	!	!	!	!	!	!	!LO:TX:t=P:problem=kreska pseudotaktowa	!	!
.	.	.	1F	.	pro	0ryy	1a	-ne	-trix
2D\	.	-ni-	.	.	.	.	.	.	.
*	*	*	*	*	*	*	*custos:a	*	*
1C	.	-trix	1E	.	.	.	1cc	Ma-	in-
*	*	*	*Xlig	*	*	*	*	*	*
=47-	=47-	=47-	=47-	=47-	=47-	=47-	=47-	=47-	=47-
*	*	*	*lig	*	*	*	*	*	*
!	!	!	!	!	!	!	!LO:LB:g=original	!	!
(4FF/	.	in-	1C	.	.	0ryy	2a\	-tre	-ter-
4GG/)	.	.	.	.	.	.	.	.	.
(4AA/	.	-ter-	.	.	.	.	1f	San-	-ce-
!LO:TX:t=P:problem=kreska pseudotaktowa	!	!	!	!	!	!	!	!	!
4FF/)	.	.	.	.	.	.	.	.	.
2.BB-X/	.	-ce-	1D,	.	.	.	.	.	.
.	.	.	.	.	.	.	1gny\	cta	-de
!LO:TX:t=P:problem=kreska pseudotaktowa	!	!	!	!	!	!	!	!	!
4AA/	.	.	.	.	.	.	.	.	.
*	*	*	*Xlig	*	*	*	*	*	*
=48-	=48-	=48-	=48-	=48-	=48-	=48-	=48-	=48-	=48-
*	*	*	*lig	*	*	*	*	*	*
4GG/	.	.	1D	Ma-	no-	0ryy	.	.	.
4AA/	.	.	.	.	.	.	.	.	.
!	!	!	!	!	!	!	!LO:TX:t=P:problem=kreska pseudotaktowa	!	!
4BB-y/	.	.	.	.	.	.	2g/	Ma-	pro-
!LO:TX:t=P:problem=kreska pseudotaktowa	!	!	!	!	!	!	!	!	!
4C/	.	.	.	.	.	.	.	.	.
*custos:D	*	*	*	*	*	*	*	*	*
1D	.	.	1F	.	.	.	4d/	-ri-	.
.	.	.	.	.	.	.	4e/	.	.
.	.	.	.	.	.	.	4f/	.	.
.	.	.	.	.	.	.	4g/	.	.
*	*	*	*Xlig	*	*	*	*	*	*
=49-	=49-	=49-	=49-	=49-	=49-	=49-	=49-	=49-	=49-
*	*	*	*lig	*	*	*	*	*	*
!LO:LB:g=original	!	!	!	!	!	!	!	!	!
2D\	-tre	-de	1F	-ri-	.	0ryy	4a\	.	.
.	.	.	.	.	.	.	4b\	.	.
1D	San-	pro-	.	.	.	.	4cc\	.	.
!	!	!	!	!	!	!	!LO:TX:t=P:problem=kreska pseudotaktowa	!	!
.	.	.	.	.	.	.	4a\	.	.
.	.	.	1E	.	.	.	2dd,<\	-a	-bis
!LO:TX:t=P:problem=kreska pseudotaktowa	!	!	!	!	!	!	!	!	!
2C#X/	.	.	.	.	.	.	2ee\	Ma-	pro
*	*	*	*Xlig	*	*	*	*	*	*
=50-	=50-	=50-	=50-	=50-	=50-	=50-	=50-	=50-	=50-
2D\	-cta	-no-	0D	.	.	0ryy	2ff\	.	.
2F\	Ma-	.	.	.	.	.	1dd	.	.
1D	-ri-	.	.	.	.	.	.	.	.
.	.	.	.	.	.	.	2dd\	-ri-	no-
=51-	=51-	=51-	=51-	=51-	=51-	=51-	=51-	=51-	=51-
!LO:TX:a:t=alleluia Da Capo.	!	!	!LO:TX:a:t=alleluia da Capo.	!	!	!	!LO:TX:a:t=alleluia Da Capo.	!	!
0AA;	-a	-bis.	0E;	-a.	-bis.	0ryy	0cc#X	-a	-bis.
!LO:LB:g=original	!	!	!LO:LB:g=original	!	!	!	!LO:PB:g=original	!	!
=||	=||	=||	=||	=||	=||	=||	=||	=||	=||
*-	*-	*-	*-	*-	*-	*-	*-	*-	*-
!!!system-decoration: [(s1,s2,s3,s4)]
!!!RDF**kern: < = below
!!!RDF**kern: > = above
!!!ENC: Marta Chmielewska
!!!END: 2021-03-20
!!!ENC: Berenika Jozajtis
!!!END: 2021-03-05
!!!YEC: Copyright 2022 Narodowy Instytut Fryderyka Chopina (https://polishscores.org)
!!!YEM: License CC-BY-4.0 (https://creativecommons.org/licenses/by/4.0)
